gama.ui.shared/icons_svg/light/overlays/small.exp.run.white.svg

<svg height="16" viewBox="-353.592 -3548.546 16 16" width="16" xmlns="http://www.w3.org/2000/svg"><path d="m-349.64235-3545.483v9.883c0 .243.1955.4383.4382.4383.08765 0 .17528-.027.24269-.0743l7.18646-4.874c.23594-.1618.2966-.4854.1348-.7213-.0337-.0539-.0809-.1011-.1348-.1347l-7.18646-4.881c-.20224-.135-.4719-.081-.60674.1146-.0472.0742-.07415.1551-.07415.2427zm-.67415 0c0-.2224.0674-.438.18876-.627.35054-.5055 1.03819-.6403 1.55054-.2965l7.18645 4.8741c.12809.0876.23595.1954.31685.3168.3708.5461.2292 1.2876-.31685 1.6586l-7.18645 4.874c-.182.128-.4045.1887-.62695.1887-.61348 0-1.11235-.4987-1.11235-1.1123z" fill="#fff"/></svg>

<?xml version="1.0" encoding="UTF-8" standalone="no"?>
<!DOCTYPE svg PUBLIC "-//W3C//DTD SVG 1.1//EN" "http://www.w3.org/Graphics/SVG/1.1/DTD/svg11.dtd">
<svg version="1.1" xmlns="http://www.w3.org/2000/svg" xmlns:xl="http://www.w3.org/1999/xlink" xmlns:dc="http://purl.org/dc/elements/1.1/" viewBox="-353.59187 -3548.5457 16.000008 16.000008" width="16.000008" height="16.000008">
  <defs/>
  <g id="SOURCES" stroke-dasharray="none" fill="none" stroke="none" fill-opacity="1" stroke-opacity="1">
    <title>SOURCES</title>
    <g id="SOURCES_Calque_2">
      <title>Calque 2</title>
      <g id="Group_9543">
        <g id="Graphic_9461"/>
        <g id="Group_9541">
          <title>play</title>
          <g id="Graphic_9542">
            <path d="M -349.64235 -3545.483 L -349.64235 -3535.6 C -349.64235 -3535.357 -349.44685 -3535.1617 -349.20415 -3535.1617 C -349.1165 -3535.1617 -349.02887 -3535.1887 -348.96146 -3535.236 L -341.775 -3540.11 C -341.53906 -3540.2718 -341.4784 -3540.5954 -341.6402 -3540.8313 C -341.6739 -3540.8852 -341.7211 -3540.9324 -341.775 -3540.966 L -348.96146 -3545.847 C -349.1637 -3545.982 -349.43336 -3545.928 -349.5682 -3545.7324 C -349.6154 -3545.6582 -349.64235 -3545.5773 -349.64235 -3545.4897 Z M -350.3165 -3545.483 C -350.3165 -3545.7054 -350.2491 -3545.921 -350.12774 -3546.11 C -349.7772 -3546.6155 -349.08955 -3546.7503 -348.5772 -3546.4065 L -341.39075 -3541.5324 C -341.26266 -3541.4448 -341.1548 -3541.337 -341.0739 -3541.2156 C -340.7031 -3540.6695 -340.8447 -3539.928 -341.39075 -3539.557 L -348.5772 -3534.683 C -348.7592 -3534.555 -348.9817 -3534.4943 -349.20415 -3534.4943 C -349.81763 -3534.4943 -350.3165 -3534.993 -350.3165 -3535.6066 Z" fill="white"/>
          </g>
        </g>
      </g>
    </g>
  </g>
</svg>
